**kern	**silbe	**harmony	**phrase	**leadinstrument	**rhyme	**timestamp	**harte
*ICvox	*	*M4/4	*	*	*	*	*M4/4
*VRlead	*	*	*	*	*	*	*
*Hstimme	*	*	*	*	*	*	*
*b:	*	*b:	*b:	*b:	*	*b:	*b:
*M4/4	*	*	*	*	*	*	*
*clefF4	*	*	*	*	*	*	*
r;	.	1r;	.	r	.	0	N.C.
r;	.	1r;	.	r	.	0.464	N.C.
=1	=1	=1	=1	=1	=1	=1	=1
*>Letter>A2	*>Letter>A2	*>Letter>A2	*>Letter>A2	*>Letter>A2	*>Letter>A2	*>Letter>A2	*>Letter>A2
*>Label>Solo	*>Label>Solo	*>Label>Solo	*>Label>Solo	*>Label>Solo	*>Label>Solo	*>Label>Solo	*>Label>Solo
1r	.	1Bm	newline	guitar	.	18.663	B:min
=2	=2	=2	=2	=2	=2	=2	=2
1r	.	1GMM	.	guitar	.	21.027	G:maj7
=3	=3	=3	=3	=3	=3	=3	=3
1r	.	1Bm	.	guitar	.	23.391	B:min
=4	=4	=4	=4	=4	=4	=4	=4
1r	.	1GMM	.	guitar	.	25.755	G:maj7
=5	=5	=5	=5	=5	=5	=5	=5
1r	.	1Bm	newline	guitar	.	28.119	B:min
=6	=6	=6	=6	=6	=6	=6	=6
1r	.	1DM	.	guitar	.	30.541	D:maj/5
=7	=7	=7	=7	=7	=7	=7	=7
1r	.	1GMM	.	guitar	.	32.962	G:maj7
=8	=8	=8	=8	=8	=8	=8	=8
*M2/4	*	*M2/4	*M2/4	*M2/4	*	*M2/4	*M2/4
2r	.	4Em	.	guitar	.	35.384	E:5
.	.	4F#m	.	guitar	.	35.989	F#:sus4
=9	=9	=9	=9	=9	=9	=9	=9
*>Letter>A2	*>Letter>A2	*>Letter>A2	*>Letter>A2	*>Letter>A2	*>Letter>A2	*>Letter>A2	*>Letter>A2
*>Label>Solo	*>Label>Solo	*>Label>Solo	*>Label>Solo	*>Label>Solo	*>Label>Solo	*>Label>Solo	*>Label>Solo
*	*	*M4/4	*M4/4	*M4/4	*	*M4/4	*M4/4
1r	.	1Bm	newline	guitar	.	36.595	B:min
=10	=10	=10	=10	=10	=10	=10	=10
1r	.	1GMM	.	guitar	.	39.007	G:maj7
=11	=11	=11	=11	=11	=11	=11	=11
1r	.	1Bm	.	guitar	.	41.419	B:min
=12	=12	=12	=12	=12	=12	=12	=12
1r	.	1GMM	.	guitar	.	43.832	G:maj7
=13	=13	=13	=13	=13	=13	=13	=13
1r	.	1Bm	newline	guitar	.	46.244	B:min
=14	=14	=14	=14	=14	=14	=14	=14
1r	.	1DM	.	guitar	.	48.662	D:maj/5
=15	=15	=15	=15	=15	=15	=15	=15
1r	.	1GMM	.	guitar	.	51.08	G:maj7
=16	=16	=16	=16	=16	=16	=16	=16
*M2/4	*	*M2/4	*M2/4	*M2/4	*	*M2/4	*M2/4
2r	.	4Em	.	guitar	.	53.497	E:5
.	.	4F#m	.	guitar	.	54.102	F#:sus4
=17	=17	=17	=17	=17	=17	=17	=17
*>Letter>A2	*>Letter>A2	*>Letter>A2	*>Letter>A2	*>Letter>A2	*>Letter>A2	*>Letter>A2	*>Letter>A2
*>Label>Solo	*>Label>Solo	*>Label>Solo	*>Label>Solo	*>Label>Solo	*>Label>Solo	*>Label>Solo	*>Label>Solo
*	*	*M4/4	*M4/4	*M4/4	*	*M4/4	*M4/4
1r	.	1Bm	newline	guitar	.	54.706	B:min
=18	=18	=18	=18	=18	=18	=18	=18
1r	.	1GMM	.	guitar	.	57.106	G:maj7
=19	=19	=19	=19	=19	=19	=19	=19
1r	.	1Bm	.	guitar	.	59.505	B:min
=20	=20	=20	=20	=20	=20	=20	=20
1r	.	1GMM	.	guitar	.	61.904	G:maj7
=21	=21	=21	=21	=21	=21	=21	=21
1r	.	1Bm	newline	guitar	.	64.303	B:min
=22	=22	=22	=22	=22	=22	=22	=22
1r	.	1DM	.	guitar	.	66.684	D:maj/5
=23	=23	=23	=23	=23	=23	=23	=23
1r	.	1GMM	.	guitar	.	69.065	G:maj7
=24	=24	=24	=24	=24	=24	=24	=24
1r	.	4Em	.	guitar	.	71.445	E:5
.	.	4F#m	.	guitar	.	72.04	F#:sus4
.	.	2Em	.	guitar	.	72.636	E:5
=25	=25	=25	=25	=25	=25	=25	=25
*>Letter>A	*>Letter>A	*>Letter>A	*>Letter>A	*>Letter>A	*>Letter>A	*>Letter>A	*>Letter>A
*>Label>Solo	*>Label>Solo	*>Label>Solo	*>Label>Solo	*>Label>Solo	*>Label>Solo	*>Label>Solo	*>Label>Solo
*	*	*M3/4	*M3/4	*M3/4	*	*M3/4	*M3/4
2.r	.	2.Bm	newline	guitar	.	73.826	B:min
=26	=26	=26	=26	=26	=26	=26	=26
2.r	.	2.GMM	.	guitar	.	75.619	G:maj7
=27	=27	=27	=27	=27	=27	=27	=27
2.r	.	2.Bm	.	guitar	.	77.413	B:min
=28	=28	=28	=28	=28	=28	=28	=28
2.r	.	2.GMM	.	guitar	.	79.206	G:maj7
=29	=29	=29	=29	=29	=29	=29	=29
2.r	.	2.Bm	newline	guitar	.	81	B:min
=30	=30	=30	=30	=30	=30	=30	=30
2.r	.	2.DM	.	guitar	.	82.786	D:maj/5
=31	=31	=31	=31	=31	=31	=31	=31
2.r	.	2.GMM	.	guitar	.	84.572	G:maj7
=32	=32	=32	=32	=32	=32	=32	=32
2.r	.	2Em	.	guitar	.	86.358	E:sus2
.	.	4F#m	.	guitar	.	87.549	F#:5
=33	=33	=33	=33	=33	=33	=33	=33
2.r	.	4.GM	.	guitar	.	88.145	G:maj
.	.	4.AM	.	guitar	.	89.335	A:maj
=34	=34	=34	=34	=34	=34	=34	=34
*>Letter>B	*>Letter>B	*>Letter>B	*>Letter>B	*>Letter>B	*>Letter>B	*>Letter>B	*>Letter>B
*>Label>Preverse	*>Label>Preverse	*>Label>Preverse	*>Label>Preverse	*>Label>Preverse	*>Label>Preverse	*>Label>Preverse	*>Label>Preverse
2.r	.	2.DM	newline	guitar	.	89.931	D:maj
=35	=35	=35	=35	=35	=35	=35	=35
2.r	.	2.GM	.	guitar	.	91.701	G:maj
=36	=36	=36	=36	=36	=36	=36	=36
2.r	.	2.FM	.	guitar	.	93.471	F:maj(9)
=37	=37	=37	=37	=37	=37	=37	=37
2.r	.	2.Em	.	guitar	.	95.241	E:min
=38	=38	=38	=38	=38	=38	=38	=38
2.r	.	2.DM	newline	guitar	.	97.011	D:maj
=39	=39	=39	=39	=39	=39	=39	=39
2.r	.	2.GM	.	guitar	.	98.771	G:maj
=40	=40	=40	=40	=40	=40	=40	=40
2.r	.	2.FM	.	guitar	.	100.531	F:maj(9)
=41	=41	=41	=41	=41	=41	=41	=41
2.r	.	2Em	.	guitar	.	102.291	E:min
.	.	4CM	.	guitar	.	103.464	C:1
=42	=42	=42	=42	=42	=42	=42	=42
*>Letter>A	*>Letter>A	*>Letter>A	*>Letter>A	*>Letter>A	*>Letter>A	*>Letter>A	*>Letter>A
*>Label>Verse	*>Label>Verse	*>Label>Verse	*>Label>Verse	*>Label>Verse	*>Label>Verse	*>Label>Verse	*>Label>Verse
4r	.	2.Bm	newline	voice	.	104.051	B:min
8F#	I	.	.	.	.	.	.
16F#	can't	.	.	.	.	.	.
16F#	re-	.	.	.	.	.	.
8F#	-mem-	.	.	.	.	.	.
8F#	-ber	.	.	.	.	.	.
=43	=43	=43	=43	=43	=43	=43	=43
4G	an-	2.GMM	.	voice	.	105.853	G:maj7
8F#	-y-	.	.	.	.	.	.
4.F#	-thing	.	.	.	A	.	.
=44	=44	=44	=44	=44	=44	=44	=44
4r	.	2.Bm	.	voice	.	107.655	B:min
8F#	can't	.	.	.	.	.	.
16F#	tell	.	.	.	.	.	.
16F#	if	.	.	.	.	.	.
8F#	this	.	.	.	.	.	.
8F#	is	.	.	.	.	.	.
=45	=45	=45	=45	=45	=45	=45	=45
4G	true	2GMM	.	voice	.	109.458	G:maj7
8F#	or	.	.	.	.	.	.
8D	_	.	.	.	.	.	.
4D	dream	4AM	.	voice	A	110.659	A:sus4
=46	=46	=46	=46	=46	=46	=46	=46
4r	.	2.Bm	newline	voice	.	111.26	B:min
8F#	Deep	.	.	.	.	.	.
16F#	down	.	.	.	.	.	.
16F#	in-	.	.	.	.	.	.
8F#	-side	.	.	.	.	.	.
8D	I	.	.	.	.	.	.
=47	=47	=47	=47	=47	=47	=47	=47
4E	feel	2.DM	.	voice	.	113.036	D:maj/5
8F#	to	.	.	.	.	.	.
8G	scream	.	.	.	A	.	.
4F#	_	.	.	.	.	.	.
=48	=48	=48	=48	=48	=48	=48	=48
8r	.	2.GMM	.	voice	.	114.812	G:maj7
8A	This	.	.	.	.	.	.
8B	ter-	.	.	.	.	.	.
16B	-ri-	.	.	.	.	.	.
16B	-ble	.	.	.	.	.	.
8B	si-	.	.	.	.	.	.
8A	-lence	.	.	.	.	.	.
=49	=49	=49	=49	=49	=49	=49	=49
*M2/4	*	*M2/4	*M2/4	*M2/4	*	*M2/4	*M2/4
8G	stops	4Em	.	voice	.	116.588	E:sus2
8F#	with	.	.	.	.	.	.
4F#	me	4F#m	.	voice	A	117.18	F#:5
=50	=50	=50	=50	=50	=50	=50	=50
*M3/4	*	*M3/4	*M3/4	*M3/4	*	*M3/4	*M3/4
4r	.	2.Bm	newline	voice	.	117.772	B:min
8F#	Now	.	.	.	.	.	.
16F#	that	.	.	.	.	.	.
16F#	the	.	.	.	.	.	.
8F#	war	.	.	.	.	.	.
8F#	is	.	.	.	.	.	.
=51	=51	=51	=51	=51	=51	=51	=51
4G	through	2.GMM	.	voice	.	119.561	G:maj7
8F#	with	.	.	.	.	.	.
4.F#	me	.	.	.	A	.	.
=52	=52	=52	=52	=52	=52	=52	=52
4r	.	2.Bm	.	voice	.	121.35	B:min
8F#	I'm	.	.	.	.	.	.
16F#	wal-	.	.	.	.	.	.
16F#	-king	.	.	.	a	.	.
8F#	up	.	.	.	.	.	.
8F#	I	.	.	.	.	.	.
=53	=53	=53	=53	=53	=53	=53	=53
4G	can	2GMM	.	voice	.	123.139	G:maj7
8F#	not	.	.	voice	.	.	.
8D	_	.	.	.	.	.	.
4D	see	4AM	.	voice	A	124.332	A:sus4
=54	=54	=54	=54	=54	=54	=54	=54
4r	.	2.Bm	newline	voice	.	124.928	B:min
8F#	that	.	.	.	.	.	.
8F#	there's	.	.	.	.	.	.
8F#	not	.	.	.	.	.	.
8D	much	.	.	.	.	.	.
=55	=55	=55	=55	=55	=55	=55	=55
4E	left	2.DM	.	voice	.	126.71	D:maj/5
8F#	of	.	.	.	.	.	.
8G	me	.	.	.	A	.	.
4F#	_	.	.	.	.	.	.
=56	=56	=56	=56	=56	=56	=56	=56
4r	.	2.GMM	.	voice	.	128.492	G:maj7
8B	Noth-	.	.	.	.	.	.
16B	-ing	.	.	.	.	.	.
16B	is	.	.	.	.	.	.
8B	real	.	.	.	.	.	.
8A	but	.	.	.	.	.	.
=57	=57	=57	=57	=57	=57	=57	=57
*M2/4	*	*M2/4	*M2/4	*M2/4	*	*M2/4	*M2/4
8G	pain	4Em	.	voice	.	130.273	E:sus2
8F#	_	.	.	.	.	.	.
4F#	now	4F#m	.	voice	.	130.867	F#:5
=58	=58	=58	=58	=58	=58	=58	=58
*>Letter>C	*>Letter>C	*>Letter>C	*>Letter>C	*>Letter>C	*>Letter>C	*>Letter>C	*>Letter>C
*>Label>Prechorus	*>Label>Prechorus	*>Label>Prechorus	*>Label>Prechorus	*>Label>Prechorus	*>Label>Prechorus	*>Label>Prechorus	*>Label>Prechorus
*	*	*M4/4	*M4/4	*M4/4	*	*M4/4	*M4/4
4.G	Hold	1GM	newline	voice	.	131.461	G:maj
8A	me	.	.	.	.	.	.
8B	breath	.	.	.	B	.	.
8A	as	.	.	.	.	.	.
4G	I	.	.	.	.	.	.
=59	=59	=59	=59	=59	=59	=59	=59
*M2/4	*	*M2/4	*M2/4	*M2/4	*	*M2/4	*M2/4
4F#	wish	4F#Mm	.	voice	.	133.785	F#:7
8G	for	4Bm	.	voice	.	134.365	B:min
8A	death	.	.	.	B	.	.
=60	=60	=60	=60	=60	=60	=60	=60
*M4/4	*	*M4/4	*M4/4	*M4/4	*	*M4/4	*M4/4
2A	_	1AM	.	voice	.	134.946	A:maj
8r	.	.	.	.	.	.	.
8A	Oh	.	.	.	.	.	.
4d	please	.	.	.	A	.	.
=61	=61	=61	=61	=61	=61	=61	=61
*M2/4	*	*M2/4	*M2/4	*M2/4	*	*M2/4	*M2/4
4c#	God	4CM	.	voice	.	137.27	C:1
4d	wake	4C#m	.	voice	.	137.851	C#:1
=62	=62	=62	=62	=62	=62	=62	=62
*>Letter>B	*>Letter>B	*>Letter>B	*>Letter>B	*>Letter>B	*>Letter>B	*>Letter>B	*>Letter>B
*>Label>Preverse	*>Label>Preverse	*>Label>Preverse	*>Label>Preverse	*>Label>Preverse	*>Label>Preverse	*>Label>Preverse	*>Label>Preverse
*	*	*M3/4	*M3/4	*M3/4	*	*M3/4	*M3/4
8d	me	2.DM	newline	guitar	A	138.431	D:maj
[8d	_	.	.	.	.	.	.
2d_	_	.	.	.	.	.	.
=63	=63	=63	=63	=63	=63	=63	=63
2.d_	_	2.GM	.	guitar	.	140.199	G:maj
=64	=64	=64	=64	=64	=64	=64	=64
2.d_	_	2.FM	.	guitar	.	141.966	F:maj(9)
=65	=65	=65	=65	=65	=65	=65	=65
2d]	_	2.Em	.	guitar	.	143.734	E:min
4r	.	.	.	.	.	.	.
=66	=66	=66	=66	=66	=66	=66	=66
2.r	.	2.DM	newline	guitar	.	145.501	D:maj
=67	=67	=67	=67	=67	=67	=67	=67
2.r	.	2.GM	.	guitar	.	147.276	G:maj
=68	=68	=68	=68	=68	=68	=68	=68
2.r	.	2.FM	.	guitar	.	149.051	F:maj(9)
=69	=69	=69	=69	=69	=69	=69	=69
2.r	.	2Em	.	guitar	.	150.826	E:min
.	.	4CM	.	guitar	.	152.01	C:1
=70	=70	=70	=70	=70	=70	=70	=70
*>Letter>A	*>Letter>A	*>Letter>A	*>Letter>A	*>Letter>A	*>Letter>A	*>Letter>A	*>Letter>A
*>Label>Verse	*>Label>Verse	*>Label>Verse	*>Label>Verse	*>Label>Verse	*>Label>Verse	*>Label>Verse	*>Label>Verse
4r	.	2.Bm	newline	voice	.	152.602	B:min
8F#	Back	.	.	.	.	.	.
16F#	in	.	.	.	.	.	.
16F#	the	.	.	.	.	.	.
8F#	womb	.	.	.	.	.	.
8F#	it's	.	.	.	.	.	.
=71	=71	=71	=71	=71	=71	=71	=71
4G	much	2.GMM	.	voice	.	154.391	G:maj7
8F#	to	.	.	.	.	.	.
4.F#	real	.	.	.	A	.	.
=72	=72	=72	=72	=72	=72	=72	=72
4r	.	2.Bm	.	voice	.	156.18	B:min
8F#	In	.	.	.	.	.	.
8F#	pumps	.	.	.	.	.	.
8F#	life	.	.	.	.	.	.
8F#	that	.	.	.	.	.	.
=73	=73	=73	=73	=73	=73	=73	=73
4G	I	2GMM	.	voice	.	157.969	G:maj7
8F#	must	.	.	.	.	.	.
8D	_	.	.	.	.	.	.
4D	feel	4AM	.	voice	.	159.162	A:sus4
=74	=74	=74	=74	=74	=74	=74	=74
8r	.	2.Bm	newline	voice	.	159.758	B:min
8F#	but	.	.	.	.	.	.
8F#	can't	.	.	.	.	.	.
8F#	look	.	.	.	.	.	.
8F#	for-	.	.	.	.	.	.
8D	-ward	.	.	.	.	.	.
=75	=75	=75	=75	=75	=75	=75	=75
4E	to	2.DM	.	voice	.	161.552	D:maj/5
8F#	re-	.	.	.	.	.	.
16F#	-veal	.	.	.	A	.	.
16G	_	.	.	.	.	.	.
4F#	_	.	.	.	.	.	.
=76	=76	=76	=76	=76	=76	=76	=76
4r	.	2.GMM	.	voice	.	163.346	G:maj7
8B	Look	.	.	.	.	.	.
16B	to	.	.	.	.	.	.
16B	the	.	.	.	.	.	.
8B	time	.	.	.	.	.	.
8A	when	.	.	.	.	.	.
=77	=77	=77	=77	=77	=77	=77	=77
*M2/4	*	*M2/4	*M2/4	*M2/4	*	*M2/4	*M2/4
8G	I'll	4Em	.	voice	.	165.14	E:sus2
8F#	_	.	.	.	.	.	.
4F#	live	4F#m	.	voice	.	165.738	F#:5
=78	=78	=78	=78	=78	=78	=78	=78
*M3/4	*	*M3/4	*M3/4	*M3/4	*	*M3/4	*M3/4
4r	.	2.Bm	newline	voice	.	166.336	B:min
8F#	Fed	.	.	.	.	.	.
16F#	through	.	.	.	.	.	.
16F#	the	.	.	.	.	.	.
8F#	tube	.	.	.	.	.	.
8F#	that	.	.	.	.	.	.
=79	=79	=79	=79	=79	=79	=79	=79
4G	sticks	2.GMM	.	voice	.	168.116	G:maj7
8F#	in	.	.	.	.	.	.
4.F#	me	.	.	.	A	.	.
=80	=80	=80	=80	=80	=80	=80	=80
4r	.	2.Bm	.	voice	.	169.897	B:min
8F#	just	.	.	.	.	.	.
16F#	like	.	.	.	.	.	.
16F#	a	.	.	.	.	.	.
8F#	war-	.	.	.	.	.	.
8F#	-time	.	.	.	.	.	.
=81	=81	=81	=81	=81	=81	=81	=81
4G	nov-	2GMM	.	voice	.	171.677	G:maj7
8F#	-el-	.	.	.	.	.	.
8D	_	.	.	.	.	.	.
4D	-ty	4AM	.	voice	A	172.864	A:sus4
=82	=82	=82	=82	=82	=82	=82	=82
4r	.	2.Bm	newline	voice	.	173.458	B:min
8F#	tied	.	.	.	.	.	.
16F#	to	.	.	.	.	.	.
16F#	ma-	.	.	.	.	.	.
8F#	-chines	.	.	.	.	.	.
8D	that	.	.	.	.	.	.
=83	=83	=83	=83	=83	=83	=83	=83
4E	make	2.DM	.	voice	.	175.254	D:maj/5
8F#	me	.	.	.	.	.	.
16F#	be	.	.	.	A	.	.
16G	_	.	.	.	.	.	.
4F#	_	.	.	.	.	.	.
=84	=84	=84	=84	=84	=84	=84	=84
4r	.	2.GMM	.	voice	.	177.051	G:maj7
8B	Cut	.	.	.	.	.	.
8B	this	.	.	.	.	.	.
8B	life	.	.	.	.	.	.
8A	off	.	.	.	.	.	.
=85	=85	=85	=85	=85	=85	=85	=85
*M2/4	*	*M2/4	*M2/4	*M2/4	*	*M2/4	*M2/4
8G	from	4Em	.	voice	.	178.848	E:sus2
8F#	_	.	.	.	.	.	.
4F#	me	4F#m	.	voice	A	179.447	F#:5
=86	=86	=86	=86	=86	=86	=86	=86
*>Letter>C	*>Letter>C	*>Letter>C	*>Letter>C	*>Letter>C	*>Letter>C	*>Letter>C	*>Letter>C
*>Label>Prechorus	*>Label>Prechorus	*>Label>Prechorus	*>Label>Prechorus	*>Label>Prechorus	*>Label>Prechorus	*>Label>Prechorus	*>Label>Prechorus
*	*	*M4/4	*M4/4	*M4/4	*	*M4/4	*M4/4
4.G	Hold	1GM	newline	voice	.	180.046	G:maj
8A	my	.	.	.	.	.	.
8B	breath	.	.	.	B	.	.
8A	as	.	.	.	.	.	.
4G	I	.	.	.	.	.	.
=87	=87	=87	=87	=87	=87	=87	=87
*M2/4	*	*M2/4	*M2/4	*M2/4	*	*M2/4	*M2/4
4F#	wish	4F#Mm	.	voice	.	182.368	F#:7
8G	for	4Bm	.	voice	.	182.949	B:min
8A	death	.	.	.	B	.	.
=88	=88	=88	=88	=88	=88	=88	=88
*M4/4	*	*M4/4	*M4/4	*M4/4	*	*M4/4	*M4/4
2A	_	1AM	.	voice	.	183.529	A:maj
8r	.	.	.	.	.	.	.
8A	Oh	.	.	.	.	.	.
4d	please	.	.	.	.	.	.
=89	=89	=89	=89	=89	=89	=89	=89
*M2/4	*	*M2/4	*M2/4	*M2/4	*	*M2/4	*M2/4
4c#	God	4CM	.	voice	.	185.852	C:1
4d	wake	4C#m	.	voice	.	186.432	C#:1
=90	=90	=90	=90	=90	=90	=90	=90
*>Letter>B	*>Letter>B	*>Letter>B	*>Letter>B	*>Letter>B	*>Letter>B	*>Letter>B	*>Letter>B
*>Label>Preverse	*>Label>Preverse	*>Label>Preverse	*>Label>Preverse	*>Label>Preverse	*>Label>Preverse	*>Label>Preverse	*>Label>Preverse
*	*	*M3/4	*M3/4	*M3/4	*	*M3/4	*M3/4
8d	me	2.DM	newline	guitar	A	187.013	D:maj
[8d	_	.	.	.	.	.	.
2d_	_	.	.	.	.	.	.
=91	=91	=91	=91	=91	=91	=91	=91
2.d_	_	2.GM	.	guitar	.	188.783	G:maj
=92	=92	=92	=92	=92	=92	=92	=92
2.d_	_	2.FM	.	guitar	.	190.554	F:maj(9)
=93	=93	=93	=93	=93	=93	=93	=93
2d]	_	2.Em	.	guitar	.	192.325	E:min
4r	.	.	.	.	.	.	.
=94	=94	=94	=94	=94	=94	=94	=94
2.r	.	2.DM	newline	guitar	.	194.096	D:maj
=95	=95	=95	=95	=95	=95	=95	=95
2.r	.	2.GM	.	guitar	.	195.87	G:maj
=96	=96	=96	=96	=96	=96	=96	=96
2.r	.	2.FM	.	guitar	.	197.643	F:maj(9)
=97	=97	=97	=97	=97	=97	=97	=97
2.r	.	2.Em	.	guitar	.	199.417	E:min
=98	=98	=98	=98	=98	=98	=98	=98
2.r	.	2.DM	newline	guitar	.	201.191	D:maj
=99	=99	=99	=99	=99	=99	=99	=99
2.r	.	2.GM	.	guitar	.	202.978	G:maj
=100	=100	=100	=100	=100	=100	=100	=100
2.r	.	2.FM	.	guitar	.	204.765	F:maj(9)
=101	=101	=101	=101	=101	=101	=101	=101
2.r	.	2.Em	.	guitar	.	206.552	E:min
=102	=102	=102	=102	=102	=102	=102	=102
2.r	.	2.DM	newline	guitar	.	208.338	D:maj
=103	=103	=103	=103	=103	=103	=103	=103
2.r	.	2.GM	.	guitar	.	210.073	G:maj
=104	=104	=104	=104	=104	=104	=104	=104
2.r	.	2.FM	.	guitar	.	211.808	F:maj(9)
=105	=105	=105	=105	=105	=105	=105	=105
2.r	.	2.Em	.	guitar	.	213.542	E:min
=106	=106	=106	=106	=106	=106	=106	=106
*>Letter>C	*>Letter>C	*>Letter>C	*>Letter>C	*>Letter>C	*>Letter>C	*>Letter>C	*>Letter>C
*>Label>Prechorus	*>Label>Prechorus	*>Label>Prechorus	*>Label>Prechorus	*>Label>Prechorus	*>Label>Prechorus	*>Label>Prechorus	*>Label>Prechorus
*	*	*M4/4	*M4/4	*M4/4	*	*M4/4	*M4/4
4.G	Now	1GM	newline	voice	.	215.277	G:maj
8A	the	.	.	.	.	.	.
8B	world	.	.	.	.	.	.
8A	is	.	.	.	.	.	.
4G	gone	.	.	.	C	.	.
=107	=107	=107	=107	=107	=107	=107	=107
*M2/4	*	*M2/4	*M2/4	*M2/4	*	*M2/4	*M2/4
4F#	I'm	4F#Mm	.	voice	.	217.566	F#:7
8G	just	4Bm	.	voice	.	218.139	B:min
8A	one	.	.	.	C	.	.
=108	=108	=108	=108	=108	=108	=108	=108
*M4/4	*	*M4/4	*M4/4	*M4/4	*	*M4/4	*M4/4
2A	_	1AM	.	voice	.	218.711	A:maj
8r	.	.	.	.	.	.	.
8A	Oh	.	.	.	.	.	.
4d	God	.	.	.	.	.	.
=109	=109	=109	=109	=109	=109	=109	=109
*M2/4	*	*M2/4	*M2/4	*M2/4	*	*M2/4	*M2/4
4c#	help	4Bm	.	voice	.	221.001	B:1
4d	me	4C#m	.	voice	A	221.573	C#:1
=110	=110	=110	=110	=110	=110	=110	=110
*M4/4	*	*M4/4	*M4/4	*M4/4	*	*M4/4	*M4/4
4.G	Hold	1GM	newline	voice	.	222.145	G:maj
8A	my	.	.	.	.	.	.
8B	breath	.	.	.	B	.	.
8A	as	.	.	.	.	.	.
4G	I	.	.	.	.	.	.
=111	=111	=111	=111	=111	=111	=111	=111
*M2/4	*	*M2/4	*M2/4	*M2/4	*	*M2/4	*M2/4
4F#	wish	4F#Mm	.	voice	.	224.385	F#:7
8G	for	4Bm	.	voice	.	224.944	B:min
[8A	death	.	.	.	B	.	.
=112	=112	=112	=112	=112	=112	=112	=112
*M4/4	*	*M4/4	*M4/4	*M4/4	*	*M4/4	*M4/4
2A]	_	1AM	.	voice	.	225.504	A:maj
8r	.	.	.	.	.	.	.
8A	Oh	.	.	.	.	.	.
4d	please	.	.	.	.	.	.
=113	=113	=113	=113	=113	=113	=113	=113
*M2/4	*	*M2/4	*M2/4	*M2/4	*	*M2/4	*M2/4
4c#	God	4Bm	.	voice	.	227.743	B:1
4d	help	4C#m	.	voice	.	228.303	C#:1
=114	=114	=114	=114	=114	=114	=114	=114
*M4/4	*	*M4/4	*M4/4	*M4/4	*	*M4/4	*M4/4
8d	me	1GM	newline	guitar	A	228.863	G:maj
[4.d	_	.	.	.	.	.	.
2d_	_	.	.	.	.	.	.
=115	=115	=115	=115	=115	=115	=115	=115
*M2/4	*	*M2/4	*M2/4	*M2/4	*	*M2/4	*M2/4
2d]	_	4F#Mm	.	guitar	.	231.136	F#:7
.	.	4Bm	.	guitar	.	231.704	B:min
=116	=116	=116	=116	=116	=116	=116	=116
*>Letter>D	*>Letter>D	*>Letter>D	*>Letter>D	*>Letter>D	*>Letter>D	*>Letter>D	*>Letter>D
*>Label>Solo	*>Label>Solo	*>Label>Solo	*>Label>Solo	*>Label>Solo	*>Label>Solo	*>Label>Solo	*>Label>Solo
*M3/4	*	*M3/4	*M3/4	*M3/4	*	*M3/4	*M3/4
2.r	.	2.Am	newline	guitar	.	232.272	A:min
=117	=117	=117	=117	=117	=117	=117	=117
2.r	.	2.GM	.	guitar	.	233.928	G:maj
=118	=118	=118	=118	=118	=118	=118	=118
2.r	.	2.BM	.	guitar	.	235.584	B:maj
=119	=119	=119	=119	=119	=119	=119	=119
2.r	.	2.CM	.	guitar	.	237.24	C:5
=120	=120	=120	=120	=120	=120	=120	=120
2.r	.	2.Am	newline	guitar	.	238.896	A:min
=121	=121	=121	=121	=121	=121	=121	=121
2.r	.	2.GM	.	guitar	.	240.537	G:maj
=122	=122	=122	=122	=122	=122	=122	=122
2.r	.	2.BM	.	guitar	.	242.178	B:maj
=123	=123	=123	=123	=123	=123	=123	=123
2.r	.	2.CM	.	guitar	.	243.819	C:5
=124	=124	=124	=124	=124	=124	=124	=124
2.r	.	2.Am	newline	guitar	.	245.46	A:min
=125	=125	=125	=125	=125	=125	=125	=125
2.r	.	2.GM	.	guitar	.	247.107	G:maj
=126	=126	=126	=126	=126	=126	=126	=126
2.r	.	2.BM	.	guitar	.	248.754	B:maj
=127	=127	=127	=127	=127	=127	=127	=127
2.r	.	2.CM	.	guitar	.	250.401	C:5
=128	=128	=128	=128	=128	=128	=128	=128
2.r	.	2.Am	newline	guitar	.	252.048	A:min
=129	=129	=129	=129	=129	=129	=129	=129
2.r	.	2.GM	.	guitar	.	253.701	G:maj
=130	=130	=130	=130	=130	=130	=130	=130
2.r	.	2.BM	.	guitar	.	255.353	B:maj
=131	=131	=131	=131	=131	=131	=131	=131
2.r	.	2.CM	.	guitar	.	257.006	C:5
=132	=132	=132	=132	=132	=132	=132	=132
2.r	.	2.Am	newline	guitar	.	258.658	A:min
=133	=133	=133	=133	=133	=133	=133	=133
2.r	.	2.GM	.	guitar	.	260.282	G:maj
=134	=134	=134	=134	=134	=134	=134	=134
2.r	.	2.BM	.	guitar	.	261.907	B:maj
=135	=135	=135	=135	=135	=135	=135	=135
2.r	.	2.CM	.	guitar	.	263.531	C:5
=136	=136	=136	=136	=136	=136	=136	=136
2.r	.	2.Am	newline	guitar	.	265.155	A:min
=137	=137	=137	=137	=137	=137	=137	=137
2.r	.	2.GM	.	guitar	.	266.772	G:maj
=138	=138	=138	=138	=138	=138	=138	=138
2.r	.	2.BM	.	guitar	.	268.39	B:maj
=139	=139	=139	=139	=139	=139	=139	=139
2.r	.	2.CM	.	guitar	.	270.007	C:5
=140	=140	=140	=140	=140	=140	=140	=140
*M4/4	*	*M4/4	*M4/4	*M4/4	*	*M4/4	*M4/4
1r	.	1CM	newline	guitar	.	271.625	C:maj
=141	=141	=141	=141	=141	=141	=141	=141
1r	.	1CM	.	guitar	.	273.774	C:maj
=142	=142	=142	=142	=142	=142	=142	=142
*>Letter>E	*>Letter>E	*>Letter>E	*>Letter>E	*>Letter>E	*>Letter>E	*>Letter>E	*>Letter>E
*>Label>Interlude	*>Label>Interlude	*>Label>Interlude	*>Label>Interlude	*>Label>Interlude	*>Label>Interlude	*>Label>Interlude	*>Label>Interlude
*E:	*	*E:	*E:	*E:	*	*E:	*E:
1r	.	1Em	newline	guitar	.	275.924	E:5(b7)
=143	=143	=143	=143	=143	=143	=143	=143
1r	.	1Em	.	guitar	.	278.097	E:5(b7)
=144	=144	=144	=144	=144	=144	=144	=144
1r	.	1Em	.	guitar	.	280.27	E:5(b7)
=145	=145	=145	=145	=145	=145	=145	=145
1r	.	2.Em	.	guitar	.	282.443	E:5(b7)
.	.	4FM	.	guitar	.	284.072	F:5
=146	=146	=146	=146	=146	=146	=146	=146
1r	.	2.Em	newline	guitar	.	284.616	E:5(b7)
.	.	4FM	.	guitar	.	286.23	F:5
=147	=147	=147	=147	=147	=147	=147	=147
1r	.	2.Em	.	guitar	.	286.768	E:5(b7)
.	.	4FM	.	guitar	.	288.381	F:5
=148	=148	=148	=148	=148	=148	=148	=148
1r	.	2.Em	.	guitar	.	288.919	E:5(b7)
.	.	4FM	.	guitar	.	290.533	F:maj
=149	=149	=149	=149	=149	=149	=149	=149
1r	.	2.Em	.	guitar	.	291.071	E:5(b7)
.	.	4FM	.	guitar	.	292.685	F:5
=150	=150	=150	=150	=150	=150	=150	=150
8e	Dark-	1EM	newline	voice	.	293.223	E:maj
8e	-ness	.	.	.	.	.	.
8r	.	.	.	.	.	.	.
8e	im-	.	.	.	.	.	.
16e	-pris-	.	.	.	.	.	.
16e	-on-	.	.	.	.	.	.
8e	-ing	.	.	.	.	.	.
8e	me	.	.	.	A	.	.
8r	.	.	.	.	.	.	.
=151	=151	=151	=151	=151	=151	=151	=151
16e	all	2.EM	.	voice	.	295.389	E:maj
16e	that	.	.	.	.	.	.
8e	I	.	.	.	.	.	.
8e	see	.	.	.	A	.	.
8r	.	.	.	.	.	.	.
16e	ab-	.	.	.	.	.	.
16e	-so-	.	.	.	.	.	.
8e	-lute	.	.	.	.	.	.
8e	hor-	4FM	.	voice	.	297.013	F:maj
8e	-ror	.	.	.	.	.	.
=152	=152	=152	=152	=152	=152	=152	=152
16e	I	1EM	.	voice	.	297.554	E:maj
16e	can-	.	.	.	.	.	.
8e	-not	.	.	.	.	.	.
8e	live	.	.	.	.	.	.
8r	.	.	.	.	.	.	.
16e	I	.	.	.	.	.	.
16e	can-	.	.	.	.	.	.
8e	-not	.	.	.	.	.	.
8e	die	.	.	.	.	.	.
8r	.	.	.	.	.	.	.
=153	=153	=153	=153	=153	=153	=153	=153
16e	Trapped	2.EM	.	voice	.	299.72	E:maj
16e	in	.	.	.	.	.	.
8e	my-	.	.	.	.	.	.
8e	-self	.	.	.	D	.	.
8r	.	.	.	.	.	.	.
16e	bod-	.	.	.	.	.	.
16e	-y	.	.	.	.	.	.
8e	my	.	.	.	.	.	.
8e	hold-	4FM	.	voice	.	301.344	F:maj
8e	-ing	.	.	.	.	.	.
=154	=154	=154	=154	=154	=154	=154	=154
8e	cell	2.Em	newline	guitar	D	301.886	E:5(b7)
4.e	_	.	.	.	.	.	.
2r	.	.	.	.	.	.	.
.	.	4FM	.	guitar	.	303.51	F:5
=155	=155	=155	=155	=155	=155	=155	=155
1r	.	4Em	.	guitar	.	304.052	E:5(b7)
.	.	4DM	.	guitar	.	304.593	D:1
.	.	4EM	.	guitar	.	305.135	E:1
.	.	4FM	.	guitar	.	305.676	F:1
=156	=156	=156	=156	=156	=156	=156	=156
1r	.	2.Em	.	guitar	.	306.218	E:5(b7)
.	.	4FM	.	guitar	.	307.842	F:5
=157	=157	=157	=157	=157	=157	=157	=157
1r	.	4Em	.	guitar	.	308.384	E:5(b7)
.	.	4DM	.	guitar	.	308.925	D:1
.	.	4Em	.	guitar	.	309.467	E:5
.	.	4BM	.	guitar	.	310.008	B:5
=158	=158	=158	=158	=158	=158	=158	=158
8g	Land-	1Em	newline	voice	.	310.55	E:5(b7)
8e	-mine	.	.	.	.	.	.
8r	.	.	.	.	.	.	.
8e	has	.	.	.	.	.	.
16e	tak-	.	.	.	.	.	.
16e	-en	.	.	.	.	.	.
8e	my	.	.	.	.	.	.
8e	sight	.	.	.	.	.	.
8r	.	.	.	.	.	.	.
=159	=159	=159	=159	=159	=159	=159	=159
16e	tak-	2.Em	.	voice	.	312.709	E:5(b7)
16e	-en	.	.	.	.	.	.
8e	my	.	.	.	.	.	.
8e	speech	.	.	.	.	.	.
8r	.	.	.	.	.	.	.
16e	tak-	.	.	.	.	.	.
16e	-en	.	.	.	.	.	.
8e	my	.	.	.	.	.	.
8e	hear-	4FM	.	voice	.	314.328	F:5
8e	-ing	.	.	.	.	.	.
=160	=160	=160	=160	=160	=160	=160	=160
16e	tak-	2.Em	.	voice	.	314.868	E:5(b7)
16e	-en	.	.	.	.	.	.
8e	my	.	.	.	.	.	.
8e	arms	.	.	.	.	.	.
8r	.	.	.	.	.	.	.
16e	tak-	.	.	.	.	.	.
16e	-en	.	.	.	.	.	.
8e	my	.	.	.	.	.	.
8e	legs	4FM	.	voice	.	316.487	F:maj
8r	.	.	.	.	.	.	.
=161	=161	=161	=161	=161	=161	=161	=161
16e	tak-	2.Em	.	voice	.	317.027	E:5(b7)
16e	-en	.	.	.	.	.	.
8e	my	.	.	.	.	.	.
8e	soul	.	.	.	.	.	.
8r	.	.	.	.	.	.	.
16e	left	.	.	.	.	.	.
16e	me	.	.	.	.	.	.
8e	with	.	.	.	.	.	.
8e	life	4FM	.	voice	.	318.647	F:5
8e	in	.	.	.	.	.	.
=162	=162	=162	=162	=162	=162	=162	=162
4g	hell	2.Em	newline	guitar	.	319.187	E:5(b7)
2.g	_	.	.	.	.	.	.
.	.	4FM	.	guitar	.	320.819	F:5
=163	=163	=163	=163	=163	=163	=163	=163
1e	_	2.Em	.	guitar	.	321.363	E:5(b7)
.	.	4FM	.	guitar	.	322.995	F:5
=164	=164	=164	=164	=164	=164	=164	=164
2e	_	2.Em	.	guitar	.	323.539	E:5(b7)
2r	.	.	.	.	.	.	.
.	.	4FM	.	guitar	.	325.171	F:maj
=165	=165	=165	=165	=165	=165	=165	=165
1r	.	2.Em	.	guitar	.	325.715	E:5(b7)
.	.	4FM	.	guitar	.	327.347	F:5
=166	=166	=166	=166	=166	=166	=166	=166
1r	.	1Em	newline	guitar	.	327.891	E:5
=167	=167	=167	=167	=167	=167	=167	=167
1r	.	1Em	.	guitar	.	330.073	E:5
=168	=168	=168	=168	=168	=168	=168	=168
1r	.	2.Em	newline	guitar	.	332.256	E:5(b7)
.	.	4FM	.	guitar	.	333.866	F:5
=169	=169	=169	=169	=169	=169	=169	=169
1r	.	2.Em	.	guitar	.	334.403	E:5(b7)
.	.	4FM	.	guitar	.	336.014	F:5
=170	=170	=170	=170	=170	=170	=170	=170
1r	.	2.Em	.	guitar	.	336.551	E:5(b7)
.	.	4FM	.	guitar	.	338.162	F:maj
=171	=171	=171	=171	=171	=171	=171	=171
1r	.	2.Em	.	guitar	.	338.699	E:5(b7)
.	.	4FM	.	guitar	.	340.31	F:5
=172	=172	=172	=172	=172	=172	=172	=172
1r	.	1Em	newline	guitar	.	340.847	E:5
=173	=173	=173	=173	=173	=173	=173	=173
1r	.	1Em	.	guitar	.	343.003	E:5
=174	=174	=174	=174	=174	=174	=174	=174
*>Letter>E	*>Letter>E	*>Letter>E	*>Letter>E	*>Letter>E	*>Letter>E	*>Letter>E	*>Letter>E
*>Label>Solo	*>Label>Solo	*>Label>Solo	*>Label>Solo	*>Label>Solo	*>Label>Solo	*>Label>Solo	*>Label>Solo
1r	.	2.Em	newline	guitar	.	345.159	E:5(b7)
.	.	4FM	.	guitar	.	346.775	F:5
=175	=175	=175	=175	=175	=175	=175	=175
1r	.	2.Em	.	guitar	.	347.314	E:5(b7)
.	.	4FM	.	guitar	.	348.929	F:5
=176	=176	=176	=176	=176	=176	=176	=176
1r	.	2.Em	.	guitar	.	349.468	E:5(b7)
.	.	4FM	.	guitar	.	351.084	F:maj
=177	=177	=177	=177	=177	=177	=177	=177
1r	.	2.Em	.	guitar	.	351.622	E:5(b7)
.	.	4FM	.	guitar	.	353.238	F:5
=178	=178	=178	=178	=178	=178	=178	=178
1r	.	1Em	newline	guitar	.	353.776	E:5
=179	=179	=179	=179	=179	=179	=179	=179
1r	.	1Em	newline	guitar	.	355.914	E:5(b7)
=180	=180	=180	=180	=180	=180	=180	=180
1r	.	2Em	.	guitar	.	358.082	E:5(b7)
.	.	2Gm	.	guitar	.	359.167	G:5
=181	=181	=181	=181	=181	=181	=181	=181
1r	.	1Em	.	guitar	.	360.251	E:5(b7)
=182	=182	=182	=182	=182	=182	=182	=182
1r	.	2Em	.	guitar	.	362.42	E:5(b7)
.	.	2Gm	.	guitar	.	363.504	G:5
=183	=183	=183	=183	=183	=183	=183	=183
1r	.	1Gm	newline	guitar	.	364.588	G:5
=184	=184	=184	=184	=184	=184	=184	=184
1r	.	4Gm	.	guitar	.	366.73	G:5
.	.	4A-M	.	guitar	.	367.266	A-:5
.	.	2FM	.	guitar	.	367.801	F:5
=185	=185	=185	=185	=185	=185	=185	=185
1r	.	1Gm	.	guitar	.	368.872	G:5
=186	=186	=186	=186	=186	=186	=186	=186
1r	.	4Gm	.	guitar	.	371.014	G:5
.	.	4A-M	.	guitar	.	371.549	A-:5
.	.	2FM	.	guitar	.	372.085	F:5
=187	=187	=187	=187	=187	=187	=187	=187
1r	.	1GMm	newline	guitar	.	373.156	G:7
=188	=188	=188	=188	=188	=188	=188	=188
1r	.	1FM	.	guitar	.	375.303	F:5
=189	=189	=189	=189	=189	=189	=189	=189
1r	.	1GMm	.	guitar	.	377.451	G:7
=190	=190	=190	=190	=190	=190	=190	=190
1r	.	1FM	.	guitar	.	379.599	F:maj
=191	=191	=191	=191	=191	=191	=191	=191
1r	.	2Gm	.	guitar	.	381.747	G:5
.	.	2DM	.	guitar	.	382.821	D:5
=192	=192	=192	=192	=192	=192	=192	=192
1r	.	2.Em	newline	guitar	.	383.895	E:5(b7)
.	.	4FM	.	guitar	.	385.517	F:5
=193	=193	=193	=193	=193	=193	=193	=193
1r	.	2.Em	.	guitar	.	386.058	E:5(b7)
.	.	4FM	.	guitar	.	387.68	F:5
=194	=194	=194	=194	=194	=194	=194	=194
1r	.	2.Em	.	guitar	.	388.221	E:5(b7)
.	.	4FM	.	guitar	.	389.843	F:5
=195	=195	=195	=195	=195	=195	=195	=195
1r	.	2.Em	.	guitar	.	390.384	E:5(b7)
.	.	4FM	.	guitar	.	392.006	F:5
=196	=196	=196	=196	=196	=196	=196	=196
1r	.	1EM	newline	guitar	.	392.547	E:maj
=197	=197	=197	=197	=197	=197	=197	=197
1r	.	2.Em	newline	guitar	.	394.701	E:5(b7)
.	.	4FM	.	guitar	.	396.307	F:5
=198	=198	=198	=198	=198	=198	=198	=198
1r	.	2.Em	.	guitar	.	396.842	E:5(b7)
.	.	4FM	.	guitar	.	398.448	F:5
=199	=199	=199	=199	=199	=199	=199	=199
1r	.	2.Em	.	guitar	.	398.983	E:5(b7)
.	.	4FM	.	guitar	.	400.589	F:5
=200	=200	=200	=200	=200	=200	=200	=200
1r	.	2.Em	.	guitar	.	401.124	E:5(b7)
.	.	4FM	.	guitar	.	402.73	F:5
=201	=201	=201	=201	=201	=201	=201	=201
1r	.	2.Em	newline	guitar	.	403.265	E:5(b7)
.	.	4FM	.	guitar	.	404.88	F:5
=202	=202	=202	=202	=202	=202	=202	=202
1r	.	2.Em	.	guitar	.	405.418	E:5(b7)
.	.	4FM	.	guitar	.	407.032	F:5
=203	=203	=203	=203	=203	=203	=203	=203
1r	.	2.Em	.	guitar	.	407.57	E:5(b7)
.	.	4FM	.	guitar	.	409.185	F:5
=204	=204	=204	=204	=204	=204	=204	=204
1r	.	2.Em	.	guitar	.	409.723	E:5(b7)
.	.	4FM	.	guitar	.	411.337	F:5
=205	=205	=205	=205	=205	=205	=205	=205
1r	.	2.Em	newline	guitar	.	411.876	E:5(b7)
.	.	4FM	.	guitar	.	413.498	F:5
=206	=206	=206	=206	=206	=206	=206	=206
1r	.	2.Em	newline	guitar	.	414.038	E:5(b7)
.	.	4FM	.	guitar	.	415.645	F:5
=207	=207	=207	=207	=207	=207	=207	=207
1r	.	2.Em	.	guitar	.	416.181	E:5(b7)
.	.	4FM	.	guitar	.	417.787	F:5
=208	=208	=208	=208	=208	=208	=208	=208
1r	.	2.Em	.	guitar	.	418.323	E:5(b7)
.	.	4FM	.	guitar	.	419.93	F:5
=209	=209	=209	=209	=209	=209	=209	=209
1r	.	2.Em	.	guitar	.	420.465	E:5(b7)
.	.	4FM	.	guitar	.	422.072	F:5
=210	=210	=210	=210	=210	=210	=210	=210
1r	.	1Gm	newline	guitar	.	422.607	G:5
=211	=211	=211	=211	=211	=211	=211	=211
1r	.	2.Em	.	guitar	.	424.736	E:5(b7)
.	.	4FM	.	guitar	.	426.332	F:5
=212	=212	=212	=212	=212	=212	=212	=212
1r	.	1Gm	.	guitar	.	426.864	G:5
r;	.	1r;	.	r	.	442.921	N.C.
r;	.	1r;	.	r	.	444.5	N.C.
*-	*-	*-	*-	*-	*-	*-	*-
!!!BillboardChartDate: 1989/05/20
!!!BillboardPeak: 35
!!!BillboardWeeksOnChart: 15
!!!COC: Metallica
!!!EMD: Harmonic interpretation of riffs near the end is a stretch.
!!!ENC: Nathaniel Condit-Schultz
!!!EST: Awating manual error checking and editing.
!!!OTL: One
!!!RDF**chordsym: original McGill chord annotation + (implied pitch class set, with bass pitch in first position)
!!!RDF**harmony: **recip + pitch class of root + harmonic quality
!!!RDF**leadinstrument: original McGill primary instrumentation annotation
!!!RDF**phrase: newline = linebreak in original McGill transcription
!!!RDF**timestamp: McGill audio timestamp in seconds
!!!RDT: 2017/01/12/
!!!SampleActualRank: 89
!!!SampleID#: 0884
!!!SampleTargetRank: 89
